svg/展开1.svg

<svg fill="none" viewBox="0 0 24 24"><path stroke="#4A5565" stroke-linecap="round" stroke-linejoin="round" d="M10 8H8v2m0-2 2.5 2.5M14 8h2v2m0-2-2.5 2.5M10 16H8v-2m0 2 2.5-2.5M16 16l-2.5-2.5M14 16h2v-2"/></svg>

<svg width="24" height="24" viewBox="0 0 24 24" fill="none" xmlns="http://www.w3.org/2000/svg"><path d="M10 8H8V10M8 8L10.5 10.5M14 8H16V10M16 8L13.5 10.5M10 16H8V14M8 16L10.5 13.5M16 16L13.5 13.5M14 16H16V14" stroke="#4A5565" stroke-linecap="round" stroke-linejoin="round"/></svg>
